X:7492
T:The Yapper's Reel
O:england
M:4/4
L:1/8
C:Jean Duval, 11/87
S:Nedd Kenney
R:Reel
N:Written for David Papasian
K:D
F2 AF GBed|cABc dcde|f2 df g3f|gfed cBAG|F2 AF GBed|cABc dcde|f2 df
bagf|1eAce dBAG:|2eAce d3 e|:
f2 fe fAdf|bagf eAce|d2 dc defd|gfed cBAe|f2 fe fAdf|bagf edAG|F2 AF
GBed|1cABc d3 e:|2cABc defg|:
a2 fd Bdfb| a2 fd A4|f2 df bagf|eAce agfe|a2 fd Bdfb| a2 fd A4|edef
bagf|1eAce defg:|2eAce dBAG||


